X: 36371
T: Seán Mháire Mhicilín
R: reel
M: 4/4
K: Dmajor
e2AA (BA)Bd|egfd (eB)B2|e2AA (BA)Bc|d2ed (Bd)d2|
e2AA (BA)Bd|egfd (eB)B2|g2(ge) f2(fe)|d2ed (Bd)d2||
(fa)a2 baaf|egfd (eB)B2|(fa)a2 baaf|d2ed (Bd)d2|
faaf bgaf|egfd (eB)B2|g2(ge) f2(fe)|d2(ed) (Bd)d2||

